X:1
T:Ave Maria
T:Ave Maria
T:Transp. mandoline 5 cordes
T:Bach-Gounod
%%score 1 2
L:1/8
M:4/4
K:C
V:1 treble nm="Flûte Traversière" snm="Fl. Tr."
V:2 treble-8 nm="Mand. oct. 5 cordes"
V:1
 z8 | z8 | z8 | z8 |: e8 | f6 f2 | g6 d2 | e6 z2 | a4- aABc | d3 e d4 | g4- gGAB | c3 d c4 | %12
 c'4- c'cde | ^f3 e d2 A2 | B4- B z d2 | e4- eefg | a4 A4 | d4- ddef | g4 G4 | c4- ccde | %20
 f4- ffga | b3 a g2 d2 | e4- e z/ z2 e/ | g4 e2 z3/2 e/ | a4 A2 z z/ a/ | a4 c2 z z/ a/ | %26
 c'4 ^d2 z z/ c'/ | c'4 c2 z z/ d/ | d4- ddcB | g3 e c2 z2 | f4- ffed | d'3 b g4 | a4- aabc' | %33
 e'4- e'c'ge | d4- daba | agfd BGFD | c6 z2 :| z8 | z8 | z8 | z6 z/ z/ z |] %41
V:2
 c/e/g/c'/ e'/g/c'/e'/ c/e/g/c'/ e'/g/c'/e'/ | c/d/a/d'/ f'/a/d'/f'/ c/d/a/d'/ f'/a/d'/f'/ | %2
 B/d/g/d'/ f'/g/d'/f'/ B/d/g/d'/ f'/g/d'/f'/ | c/e/g/c'/ e'/g/c'/e'/ c/e/g/c'/ e'/g/c'/e'/ |: %4
 c/e/g/c'/ e'/g/c'/e'/ c/e/g/c'/ e'/g/c'/e'/ | c/d/a/d'/ f'/a/d'/f'/ c/d/a/d'/ f'/a/d'/f'/ | %6
 B/d/g/d'/ f'/g/d'/f'/ B/d/f/g/ d'/g/f/B/ | c/e/g/c'/ e'/g/c'/e'/ c/e/g/c'/ e'/g/c'/e'/ | %8
 c/e/a/c'/ e'/a/c'/e'/ c/e/a/e/ c/e/a/e/ | c/d/^f/a/ d'/a/f/d/ c/d/f/a/ d'/a/f/d/ | %10
 B/d/g/d'/ g'/g/d'/g'/ B/d/g/d/ f/d/f/d/ | B/c/e/g/ c'/g/e/c/ B/c/e/g/ c'/g/e/c/ | %12
 A/c/e/g/ a/c/e/g/ A/c/e/g/ a/c/e/g/ | D/A/c/d/ ^f/c/d/f/ D/A/c/d/ f/c/d/f/ | %14
 G/B/d/g/ b/d/g/b/ G/B/d/g/ b/d/g/b/ | G/_B/e/g/ ^c'/e/g/c'/ G/B/e/g/ c'/g/e/B/ | %16
 F/A/d/e/ d/A/d/f/ F/A/d/e/ d/A/d/f/ | F/_A/d/f/ b/d/f/b/ F/A/B/d/ _a/f/d/B/ | %18
 E/G/c/e/ c/G/c/e/ E/G/c/e/ c/G/c/e/ | E/F/A/c/ e/A/c/e/ E/F/A/c/ e/A/c/e/ | %20
 D/F/A/c/ e/A/c/e/ D/F/A/c/ e/A/c/e/ | G,/D/G/B/ f/G/B/f/ G,/D/G/B/ f/G/B/f/ | %22
 C/E/G/c/ e/G/c/e/ C/E/G/c/ e/G/c/e/ | C/G/_B/c/ e/B/c/e/ C/G/B/c/ e/B/c/e/ | %24
 F/f/a/c'/ e'/a/c'/e'/ F/f/a/c'/ e'/a/c'/e'/ | ^F/^f/a/c'/ _e'/a/c'/^d'/ F/f/a/c'/ e'/a/c'/e'/ | %26
 G/_E/B/c/ _e/B/c/e/ G/E/B/c/ e/B/c/e/ | _A/F/B/c/ d/B/c/d/ A/F/B/c/ d/B/c/d/ | %28
 G/F/G/B/ d/G/B/d/ G/F/G/B/ d/G/B/d/ | G/E/G/c/ e/G/c/e/ G/E/G/c/ e/G/c/e/ | %30
 G/D/G/c/ f/G/c/f/ G/D/G/c/ f/G/c/f/ | G/D/G/B/ f/G/B/f/ G/D/G/B/ f/G/B/f/ | %32
 G/_E/A/c/ ^f/A/c/f/ G/E/A/c/ f/A/c/f/ | G/E/G/c/ e/G/c/e/ g/c/e/g/ e/c/G/c/ | %34
 G/D/G/c/ f/G/c/f/ G/D/G/c/ f/G/c/f/ | G/D/G/B/ f/G/B/d/ G/D/G/B/ d/B/G/B/ | %36
 C/c/g/c'/ e'/g/c'/e'/ c/e/g/c'/ e'/g/c'/e'/ :| C/c/g/_b/ e'/g/b/e'/ C/c/g/b/ e'/g/b/e'/ | %38
 C/c/f/a/ c'/f'/c'/a/ c'/a/f/a/ f/d/f/d/ | C/B/g/b/ d'/f'/d'/b/ d'/b/g/b/ d/f/e/d/ | [CGcec']8 |] %41

